X: 17036
T: Hearty Boys Of Ballymote, The
R: jig
M: 6/8
K: Edorian
|:E/F/|GEE [B,B]EE|FEF DFA|GEE [B,B]EE|FED E2 F|
GEE [B,2B2] E|F^EF DF/G/A|B/c/dB BAF|dAF E2:|
c|d3 dcB|AFD D2 A|B2 e e^de|fec d2 B/c/|
ded d2 B|AFD DFA|Bee Bdd|AFD E2 c|
d2 d dcB|AFD D2 A|B2 e e^de|fed B2 c|
dfe dcB|AFD DF/G/A|B2 e B/c/dB|AFD E2||

